img/icon/p-arrow.svg

<svg width="113" height="62" viewBox="0 0 113 62" fill="none" xmlns="http://www.w3.org/2000/svg">
<path d="M109.799 61.4579C110.052 61.5688 110.347 61.4537 110.458 61.2008L112.265 57.0798C112.376 56.8269 112.261 56.532 112.008 56.4211C111.756 56.3102 111.461 56.4253 111.35 56.6782L109.743 60.3413L106.08 58.7345C105.827 58.6236 105.532 58.7387 105.421 58.9916C105.31 59.2445 105.425 59.5394 105.678 59.6503L109.799 61.4579ZM1.92725e-06 1.5C0.829848 1.5 1.65582 1.50375 2.47789 1.51131L2.48708 0.511351C1.6619 0.503768 0.832865 0.499997 -1.92725e-06 0.5L1.92725e-06 1.5ZM5.42698 1.5551C7.08583 1.58927 8.72839 1.63945 10.3545 1.70593L10.3954 0.706769C8.7623 0.639999 7.11299 0.589622 5.44758 0.555317L5.42698 1.5551ZM13.3172 1.84617C14.9742 1.93545 16.6135 2.0423 18.2352 2.16705L18.3119 1.17C16.6824 1.04464 15.0354 0.937297 13.371 0.847614L13.3172 1.84617ZM21.1813 2.41525C22.8341 2.56679 24.4679 2.73766 26.0826 2.92823L26.1998 1.93512C24.5762 1.74351 22.9338 1.57174 21.2726 1.41943L21.1813 2.41525ZM29.0052 3.29758C30.6507 3.51953 32.2756 3.76277 33.8797 4.02771L34.0427 3.04108C32.4285 2.77448 30.7938 2.52978 29.1389 2.30656L29.0052 3.29758ZM36.7948 4.53739C38.4247 4.83844 40.0323 5.1629 41.6176 5.51121L41.8322 4.5345C40.2356 4.18372 38.617 3.85705 36.9764 3.55402L36.7948 4.53739ZM44.5004 6.17698C46.1105 6.56729 47.6965 6.98337 49.2583 7.42572L49.5308 6.46357C47.9564 6.01765 46.3581 5.59835 44.736 5.20512L44.5004 6.17698ZM52.0899 8.26486C53.6711 8.75462 55.2263 9.27268 56.7554 9.81957L57.0922 8.87799C55.5492 8.32612 53.9803 7.80353 52.3858 7.30963L52.0899 8.26486ZM59.5194 10.8508C61.0598 11.4498 62.5724 12.0798 64.057 12.7411L64.464 11.8277C62.9643 11.1596 61.4369 10.5235 59.8819 9.91878L59.5194 10.8508ZM66.7316 13.9815C68.2168 14.6982 69.6726 15.4483 71.0986 16.2324L71.5804 15.3561C70.1385 14.5633 68.667 13.8051 67.1661 13.0809L66.7316 13.9815ZM73.657 17.6948C75.0709 18.5346 76.4538 19.4101 77.8055 20.3218L78.3647 19.4928C76.9968 18.5701 75.5977 17.6845 74.1677 16.835L73.657 17.6948ZM80.2183 22.0121C81.5439 22.9763 82.8377 23.9779 84.0993 25.0177L84.7353 24.246C83.4579 23.1933 82.1483 22.1793 80.8066 21.2034L80.2183 22.0121ZM86.3373 26.932C87.5592 28.0168 88.7489 29.14 89.9062 30.3025L90.6149 29.5969C89.443 28.4199 88.2384 27.2825 87.0012 26.1842L86.3373 26.932ZM91.9446 32.4269C93.0507 33.623 94.125 34.8579 95.1672 36.1324L95.9414 35.4993C94.8863 34.2092 93.7987 32.959 92.6788 31.748L91.9446 32.4269ZM96.9893 38.4439C97.9725 39.738 98.9248 41.0704 99.8459 42.4418L100.676 41.8842C99.7442 40.4969 98.7806 39.1486 97.7856 37.839L96.9893 38.4439ZM101.445 44.9122C102.304 46.2883 103.133 47.7016 103.932 49.1527L104.808 48.6702C104 47.2035 103.162 45.7746 102.294 44.3829L101.445 44.9122ZM105.312 51.7529C106.048 53.1949 106.757 54.6723 107.439 56.1858L108.351 55.7754C107.663 54.2472 106.946 52.7548 106.202 51.2979L105.312 51.7529ZM108.61 58.89C108.925 59.6454 109.233 60.4092 109.534 61.1818L110.466 60.8182C110.162 60.0387 109.851 59.2678 109.533 58.5054L108.61 58.89Z" fill="#C2D5E1"/>
</svg>

<svg width="113" height="62" fill="none" xmlns="http://www.w3.org/2000/svg"><path d="M109.799 61.458a.5.5 0 0 0 .659-.257l1.807-4.121a.5.5 0 1 0-.915-.402l-1.607 3.663-3.663-1.607a.5.5 0 0 0-.402.916l4.121 1.808zM0 1.5c.83 0 1.656.004 2.478.011l.01-1A293.85 293.85 0 0 0 0 .5v1zm5.427.055c1.659.034 3.301.084 4.928.15l.04-.998A244.27 244.27 0 0 0 5.448.555l-.021 1zm7.89.291c1.657.09 3.296.196 4.918.321l.077-.997c-1.63-.125-3.277-.233-4.941-.322l-.054.998zm7.864.57c1.653.15 3.287.322 4.902.512l.117-.993a190.259 190.259 0 0 0-4.927-.516l-.092.996zm7.824.882c1.646.222 3.27.465 4.875.73l.163-.987a167.5 167.5 0 0 0-4.904-.734l-.134.99zm7.79 1.24c1.63.3 3.237.625 4.823.973l.214-.976a146.2 146.2 0 0 0-4.856-.981l-.181.983zM44.5 6.176c1.61.39 3.197.806 4.758 1.249l.273-.962a129.878 129.878 0 0 0-4.795-1.259l-.236.972zm7.59 2.088a114.08 114.08 0 0 1 4.665 1.555l.337-.942a115.1 115.1 0 0 0-4.706-1.568l-.296.955zm7.43 2.586c1.54.599 3.052 1.229 4.537 1.89l.407-.913c-1.5-.668-3.027-1.304-4.582-1.91l-.363.933zm7.212 3.13a92.46 92.46 0 0 1 4.367 2.251l.481-.876a93.426 93.426 0 0 0-4.414-2.275l-.434.9zm6.925 3.714a85.498 85.498 0 0 1 4.148 2.627l.56-.83a86.549 86.549 0 0 0-4.197-2.657l-.511.86zm6.561 4.317a81.183 81.183 0 0 1 3.881 3.006l.636-.772a82.251 82.251 0 0 0-3.928-3.043l-.589.81zm6.12 4.92a79.67 79.67 0 0 1 3.568 3.37l.709-.705A80.714 80.714 0 0 0 87 26.184l-.664.748zm5.607 5.495a80.675 80.675 0 0 1 3.222 3.705l.774-.633a81.75 81.75 0 0 0-3.262-3.751l-.734.679zm5.044 6.017a84.316 84.316 0 0 1 2.857 3.998l.83-.558a85.315 85.315 0 0 0-2.89-4.045l-.797.605zm4.456 6.468a89.823 89.823 0 0 1 2.487 4.24l.876-.482a91.81 91.81 0 0 0-2.514-4.287l-.849.53zm3.867 6.84c.736 1.443 1.445 2.92 2.127 4.434l.912-.41a101.097 101.097 0 0 0-2.149-4.478l-.89.455zm3.298 7.138c.315.755.623 1.52.924 2.292l.932-.364c-.304-.78-.615-1.55-.933-2.313l-.923.385z" fill="#C2D5E1"/></svg>
